X:1
T:Title
%%score { ( 1 3 ) | ( 2 4 ) }
L:1/8
M:3/4
K:Bb
V:1 treble nm="Grand Piano"
V:3 treble 
V:2 bass 
V:4 bass 
V:1
 z2 z2 z[Q:1/4=95] [B,DF] | [F,B,D][B,DF] [DFB]3 [B,FA] | [Gc][GB] [EG]3 [GB] | AB c3 c | %4
[M:5/8] [FB][Fc] [Fd]3 |[M:1/8] [DF] |[M:3/4] [F,B,D][B,DF] [DFB]3 [B,FA] | [Gc][GB] [EG]3 [GB] | %8
 [FA][Fc] [Ae]3 A |[M:5/8] GA [DB]3 |[M:4/4] z2 z e- e4 |[M:7/8] cAG z D DD |[M:1/8] D | F | %14
[M:4/4] z2 B6 |[M:7/8] z2 c- c- c3 |[M:1/8] F |[M:4/4] z2 f6 |[M:7/8] [DFB][B,F] [CFA]2 [EG]2 z | %19
[M:1/8] G |[M:4/4] z2 e6 |[M:7/8] dc[DB]- [DB]- [DB]3 |] %22
V:2
 z2 z2 z B,, | B,,B,, B,,3 D, | [E,B,][E,B,] [E,B,]3 [E,B,] | [F,CF][F,B,D] [F,A,F]3 [F,A,F] | %4
[M:5/8] [D,B,][C,A,] [B,,B,]3 |[M:1/8] [B,,B,] |[M:3/4] B,,B,, B,,3 D, | %7
 [E,B,][E,B,] [E,B,]3 [E,B,] | [F,C][F,A,] [F,C]3 [F,CF] |[M:5/8] [F,A,E][F,CE] [B,,B,]3 | %10
[M:4/4] z4 [F,C][F,C][F,C][F,C] |[M:7/8] z z z2 [B,,B,] [B,,B,][B,,B,] |[M:1/8] [B,,B,] | z | %14
[M:4/4] z2 z [G,D] [G,D][G,D] .[G,D]2 |[M:7/8] z z2 [F,A,][F,A,] [F,A,][F,A,] |[M:1/8] z | %17
[M:4/4] z2 z[K:treble] [B,D] [B,D][B,D][B,D][B,F] |[M:7/8][K:bass] B,,D, z2 B,2 z | %19
[M:1/8][K:treble] E |[M:4/4] z2 A6[K:bass] |[M:7/8] [F,B,F][F,A,E][B,,B,]- [B,,B,]- [B,,B,]3 |] %22
V:3
 x6 | x6 | x6 | x6 |[M:5/8] x5 |[M:1/8] x |[M:3/4] x6 | x6 | x6 |[M:5/8] x5 |[M:4/4] BA .c2 AAAA | %11
[M:7/8] z z2 F- F3- |[M:1/8] F | x |[M:4/4] GA z G GGGd |[M:7/8] cB z FF FF |[M:1/8] x | %17
[M:4/4] Bd z B BBBd |[M:7/8] x7 |[M:1/8] x |[M:4/4] Ac z C CCCA |[M:7/8] x7 |] %22
V:4
 x6 | x6 | x6 | x6 |[M:5/8] x5 |[M:1/8] x |[M:3/4] x6 | x6 | x6 |[M:5/8] x5 |[M:4/4] x8 | %11
[M:7/8] x7 |[M:1/8] x | x |[M:4/4] x8 |[M:7/8] x7 |[M:1/8] x |[M:4/4] x3[K:treble] x5 | %18
[M:7/8][K:bass] z2 E,- E,3 z |[M:1/8][K:treble] x |[M:4/4] FF z[K:bass] F, F,F,F,[F,CF] | %21
[M:7/8] x7 |] %22

